images/5578.svg

<?xml version="1.0" encoding="UTF-8"?>
<svg xmlns="http://www.w3.org/2000/svg" xmlns:xlink="http://www.w3.org/1999/xlink" width="300pt" height="300pt" viewBox="0 0 300 300" version="1.1">
<defs>
<g>
<symbol overflow="visible" id="glyph0-0">
<path style="stroke:none;" d="M 0.59375 2.125 L 0.59375 -8.46875 L 6.59375 -8.46875 L 6.59375 2.125 Z M 1.265625 1.453125 L 5.9375 1.453125 L 5.9375 -7.78125 L 1.265625 -7.78125 Z M 1.265625 1.453125 "/>
</symbol>
<symbol overflow="visible" id="glyph0-1">
<path style="stroke:none;" d="M 4.734375 -7.953125 C 3.867188 -7.953125 3.179688 -7.628906 2.671875 -6.984375 C 2.171875 -6.347656 1.921875 -5.472656 1.921875 -4.359375 C 1.921875 -3.265625 2.171875 -2.394531 2.671875 -1.75 C 3.179688 -1.113281 3.867188 -0.796875 4.734375 -0.796875 C 5.585938 -0.796875 6.265625 -1.113281 6.765625 -1.75 C 7.273438 -2.394531 7.53125 -3.265625 7.53125 -4.359375 C 7.53125 -5.472656 7.273438 -6.347656 6.765625 -6.984375 C 6.265625 -7.628906 5.585938 -7.953125 4.734375 -7.953125 Z M 4.734375 -8.90625 C 5.953125 -8.90625 6.925781 -8.492188 7.65625 -7.671875 C 8.394531 -6.847656 8.765625 -5.742188 8.765625 -4.359375 C 8.765625 -2.984375 8.394531 -1.882812 7.65625 -1.0625 C 6.925781 -0.238281 5.953125 0.171875 4.734375 0.171875 C 3.503906 0.171875 2.519531 -0.238281 1.78125 -1.0625 C 1.039062 -1.882812 0.671875 -2.984375 0.671875 -4.359375 C 0.671875 -5.742188 1.039062 -6.847656 1.78125 -7.671875 C 2.519531 -8.492188 3.503906 -8.90625 4.734375 -8.90625 Z M 4.734375 -8.90625 "/>
</symbol>
<symbol overflow="visible" id="glyph0-2">
<path style="stroke:none;" d="M 1.171875 -8.75 L 2.765625 -8.75 L 6.65625 -1.4375 L 6.65625 -8.75 L 7.796875 -8.75 L 7.796875 0 L 6.203125 0 L 2.328125 -7.3125 L 2.328125 0 L 1.171875 0 Z M 1.171875 -8.75 "/>
</symbol>
<symbol overflow="visible" id="glyph0-3">
<path style="stroke:none;" d="M 1.171875 -8.75 L 2.359375 -8.75 L 2.359375 -5.15625 L 6.65625 -5.15625 L 6.65625 -8.75 L 7.84375 -8.75 L 7.84375 0 L 6.65625 0 L 6.65625 -4.171875 L 2.359375 -4.171875 L 2.359375 0 L 1.171875 0 Z M 1.171875 -8.75 "/>
</symbol>
<symbol overflow="visible" id="glyph1-0">
<path style="stroke:none;" d="M 0.5 1.765625 L 0.5 -7.046875 L 5.5 -7.046875 L 5.5 1.765625 Z M 1.0625 1.21875 L 4.9375 1.21875 L 4.9375 -6.484375 L 1.0625 -6.484375 Z M 1.0625 1.21875 "/>
</symbol>
<symbol overflow="visible" id="glyph1-1">
<path style="stroke:none;" d="M 1.921875 -0.828125 L 5.359375 -0.828125 L 5.359375 0 L 0.734375 0 L 0.734375 -0.828125 C 1.109375 -1.210938 1.617188 -1.734375 2.265625 -2.390625 C 2.910156 -3.046875 3.316406 -3.46875 3.484375 -3.65625 C 3.796875 -4.007812 4.015625 -4.304688 4.140625 -4.546875 C 4.265625 -4.796875 4.328125 -5.039062 4.328125 -5.28125 C 4.328125 -5.664062 4.191406 -5.976562 3.921875 -6.21875 C 3.648438 -6.46875 3.296875 -6.59375 2.859375 -6.59375 C 2.546875 -6.59375 2.21875 -6.535156 1.875 -6.421875 C 1.539062 -6.316406 1.175781 -6.15625 0.78125 -5.9375 L 0.78125 -6.9375 C 1.175781 -7.09375 1.546875 -7.210938 1.890625 -7.296875 C 2.234375 -7.378906 2.550781 -7.421875 2.84375 -7.421875 C 3.59375 -7.421875 4.191406 -7.234375 4.640625 -6.859375 C 5.097656 -6.484375 5.328125 -5.976562 5.328125 -5.34375 C 5.328125 -5.039062 5.269531 -4.753906 5.15625 -4.484375 C 5.039062 -4.222656 4.835938 -3.910156 4.546875 -3.546875 C 4.460938 -3.453125 4.203125 -3.175781 3.765625 -2.71875 C 3.328125 -2.269531 2.710938 -1.640625 1.921875 -0.828125 Z M 1.921875 -0.828125 "/>
</symbol>
</g>
</defs>
<g id="surface41341">
<rect x="0" y="0" width="300" height="300" style="fill:rgb(100%,100%,100%);fill-opacity:1;stroke:none;"/>
<path style="fill:none;stroke-width:1.2;stroke-linecap:butt;stroke-linejoin:miter;stroke:rgb(0%,0%,0%);stroke-opacity:1;stroke-miterlimit:10;" d="M 235.179688 217.171875 L 235.976562 202.398438 "/>
<path style="fill:none;stroke-width:1.2;stroke-linecap:butt;stroke-linejoin:miter;stroke:rgb(100%,0%,0%);stroke-opacity:1;stroke-miterlimit:10;" d="M 235.976562 202.398438 L 236.773438 187.625 "/>
<path style="fill:none;stroke-width:1.2;stroke-linecap:butt;stroke-linejoin:miter;stroke:rgb(100%,0%,0%);stroke-opacity:1;stroke-miterlimit:10;" d="M 236.773438 187.625 L 224.375 179.546875 "/>
<path style="fill:none;stroke-width:1.2;stroke-linecap:butt;stroke-linejoin:miter;stroke:rgb(0%,0%,0%);stroke-opacity:1;stroke-miterlimit:10;" d="M 224.375 179.546875 L 211.980469 171.46875 "/>
<path style=" stroke:none;fill-rule:nonzero;fill:rgb(100%,100%,100%);fill-opacity:1;" d="M 231.773438 180.625 L 241.773438 180.625 L 241.773438 194.625 L 231.773438 194.625 Z M 231.773438 180.625 "/>
<g style="fill:rgb(100%,0%,0%);fill-opacity:1;">
  <use xlink:href="#glyph0-1" x="231.773438" y="191.763672"/>
</g>
<path style="fill:none;stroke-width:1.2;stroke-linecap:butt;stroke-linejoin:miter;stroke:rgb(0%,0%,0%);stroke-opacity:1;stroke-miterlimit:10;" d="M 211.980469 171.46875 L 185.59375 184.863281 "/>
<path style="fill:none;stroke-width:1.2;stroke-linecap:butt;stroke-linejoin:miter;stroke:rgb(0%,0%,0%);stroke-opacity:1;stroke-miterlimit:10;" d="M 206.191406 166.601562 L 185.082031 177.316406 "/>
<path style="fill:none;stroke-width:1.2;stroke-linecap:butt;stroke-linejoin:miter;stroke:rgb(0%,0%,0%);stroke-opacity:1;stroke-miterlimit:10;" d="M 213.574219 141.921875 L 211.980469 171.46875 "/>
<path style="fill:none;stroke-width:1.2;stroke-linecap:butt;stroke-linejoin:miter;stroke:rgb(0%,0%,0%);stroke-opacity:1;stroke-miterlimit:10;" d="M 185.59375 184.863281 L 160.804688 168.710938 "/>
<path style="fill:none;stroke-width:1.2;stroke-linecap:butt;stroke-linejoin:miter;stroke:rgb(0%,0%,0%);stroke-opacity:1;stroke-miterlimit:10;" d="M 160.804688 168.710938 L 162.394531 139.164062 "/>
<path style="fill:none;stroke-width:1.2;stroke-linecap:butt;stroke-linejoin:miter;stroke:rgb(0%,0%,0%);stroke-opacity:1;stroke-miterlimit:10;" d="M 167.914062 166.132812 L 169.1875 142.496094 "/>
<path style="fill:none;stroke-width:1.2;stroke-linecap:butt;stroke-linejoin:miter;stroke:rgb(0%,0%,0%);stroke-opacity:1;stroke-miterlimit:10;" d="M 160.804688 168.710938 L 134.417969 182.105469 "/>
<path style="fill:none;stroke-width:1.2;stroke-linecap:butt;stroke-linejoin:miter;stroke:rgb(0%,0%,0%);stroke-opacity:1;stroke-miterlimit:10;" d="M 162.394531 139.164062 L 188.78125 125.769531 "/>
<path style="fill:none;stroke-width:1.2;stroke-linecap:butt;stroke-linejoin:miter;stroke:rgb(0%,0%,0%);stroke-opacity:1;stroke-miterlimit:10;" d="M 188.78125 125.769531 L 213.574219 141.921875 "/>
<path style="fill:none;stroke-width:1.2;stroke-linecap:butt;stroke-linejoin:miter;stroke:rgb(0%,0%,0%);stroke-opacity:1;stroke-miterlimit:10;" d="M 187.460938 133.21875 L 207.292969 146.140625 "/>
<path style="fill:none;stroke-width:1.2;stroke-linecap:butt;stroke-linejoin:miter;stroke:rgb(0%,0%,0%);stroke-opacity:1;stroke-miterlimit:10;" d="M 188.78125 125.769531 L 189.578125 110.996094 "/>
<path style="fill:none;stroke-width:1.2;stroke-linecap:butt;stroke-linejoin:miter;stroke:rgb(100%,0%,0%);stroke-opacity:1;stroke-miterlimit:10;" d="M 189.578125 110.996094 L 190.375 96.222656 "/>
<path style="fill:none;stroke-width:1.2;stroke-linecap:butt;stroke-linejoin:miter;stroke:rgb(0%,0%,0%);stroke-opacity:1;stroke-miterlimit:10;" d="M 213.574219 141.921875 L 226.765625 135.226562 "/>
<path style="fill:none;stroke-width:1.2;stroke-linecap:butt;stroke-linejoin:miter;stroke:rgb(100%,0%,0%);stroke-opacity:1;stroke-miterlimit:10;" d="M 226.765625 135.226562 L 239.957031 128.53125 "/>
<path style="fill:none;stroke-width:1.2;stroke-linecap:butt;stroke-linejoin:miter;stroke:rgb(100%,0%,0%);stroke-opacity:1;stroke-miterlimit:10;" d="M 239.957031 128.53125 L 252.355469 136.605469 "/>
<path style="fill:none;stroke-width:1.2;stroke-linecap:butt;stroke-linejoin:miter;stroke:rgb(0%,0%,0%);stroke-opacity:1;stroke-miterlimit:10;" d="M 252.355469 136.605469 L 264.75 144.683594 "/>
<path style=" stroke:none;fill-rule:nonzero;fill:rgb(100%,100%,100%);fill-opacity:1;" d="M 234.957031 121.53125 L 244.957031 121.53125 L 244.957031 135.53125 L 234.957031 135.53125 Z M 234.957031 121.53125 "/>
<g style="fill:rgb(100%,0%,0%);fill-opacity:1;">
  <use xlink:href="#glyph0-1" x="234.957031" y="132.669922"/>
</g>
<path style="fill:none;stroke-width:1.2;stroke-linecap:butt;stroke-linejoin:miter;stroke:rgb(100%,0%,0%);stroke-opacity:1;stroke-miterlimit:10;" d="M 190.375 96.222656 L 203.566406 89.527344 "/>
<path style="fill:none;stroke-width:1.2;stroke-linecap:butt;stroke-linejoin:miter;stroke:rgb(0%,0%,0%);stroke-opacity:1;stroke-miterlimit:10;" d="M 203.566406 89.527344 L 216.757812 82.828125 "/>
<path style=" stroke:none;fill-rule:nonzero;fill:rgb(100%,100%,100%);fill-opacity:1;" d="M 185.375 89.222656 L 195.375 89.222656 L 195.375 103.222656 L 185.375 103.222656 Z M 185.375 89.222656 "/>
<g style="fill:rgb(100%,0%,0%);fill-opacity:1;">
  <use xlink:href="#glyph0-1" x="185.375" y="100.361328"/>
</g>
<path style="fill:none;stroke-width:1.2;stroke-linecap:butt;stroke-linejoin:miter;stroke:rgb(0%,0%,0%);stroke-opacity:1;stroke-miterlimit:10;" d="M 134.417969 182.105469 L 109.625 165.953125 "/>
<path style="fill:none;stroke-width:1.2;stroke-linecap:butt;stroke-linejoin:miter;stroke:rgb(0%,0%,0%);stroke-opacity:1;stroke-miterlimit:10;" d="M 109.625 165.953125 L 111.21875 136.40625 "/>
<path style="fill:none;stroke-width:1.2;stroke-linecap:butt;stroke-linejoin:miter;stroke:rgb(0%,0%,0%);stroke-opacity:1;stroke-miterlimit:10;" d="M 102.832031 162.625 L 104.109375 138.984375 "/>
<path style="fill:none;stroke-width:1.2;stroke-linecap:butt;stroke-linejoin:miter;stroke:rgb(0%,0%,0%);stroke-opacity:1;stroke-miterlimit:10;" d="M 83.242188 179.347656 L 109.625 165.953125 "/>
<path style="fill:none;stroke-width:1.2;stroke-linecap:butt;stroke-linejoin:miter;stroke:rgb(0%,0%,0%);stroke-opacity:1;stroke-miterlimit:10;" d="M 111.21875 136.40625 L 98.824219 128.328125 "/>
<path style="fill:none;stroke-width:1.2;stroke-linecap:butt;stroke-linejoin:miter;stroke:rgb(0%,0%,100%);stroke-opacity:1;stroke-miterlimit:10;" d="M 98.824219 128.328125 L 86.425781 120.253906 "/>
<path style="fill:none;stroke-width:1.2;stroke-linecap:butt;stroke-linejoin:miter;stroke:rgb(0%,0%,100%);stroke-opacity:1;stroke-miterlimit:10;" d="M 86.425781 120.253906 L 73.234375 126.949219 "/>
<path style="fill:none;stroke-width:1.2;stroke-linecap:butt;stroke-linejoin:miter;stroke:rgb(0%,0%,0%);stroke-opacity:1;stroke-miterlimit:10;" d="M 73.234375 126.949219 L 60.042969 133.648438 "/>
<path style="fill:none;stroke-width:1.2;stroke-linecap:butt;stroke-linejoin:miter;stroke:rgb(0%,0%,100%);stroke-opacity:1;stroke-miterlimit:10;" d="M 86.941406 127.800781 L 76.386719 133.15625 "/>
<path style="fill:none;stroke-width:1.2;stroke-linecap:butt;stroke-linejoin:miter;stroke:rgb(0%,0%,0%);stroke-opacity:1;stroke-miterlimit:10;" d="M 76.386719 133.15625 L 65.832031 138.515625 "/>
<path style=" stroke:none;fill-rule:nonzero;fill:rgb(100%,100%,100%);fill-opacity:1;" d="M 82.425781 113.253906 L 91.425781 113.253906 L 91.425781 127.253906 L 82.425781 127.253906 Z M 82.425781 113.253906 "/>
<g style="fill:rgb(0%,0%,100%);fill-opacity:1;">
  <use xlink:href="#glyph0-2" x="82.425781" y="124.392578"/>
</g>
<path style="fill:none;stroke-width:1.2;stroke-linecap:butt;stroke-linejoin:miter;stroke:rgb(0%,0%,0%);stroke-opacity:1;stroke-miterlimit:10;" d="M 60.042969 133.648438 L 59.246094 148.421875 "/>
<path style="fill:none;stroke-width:1.2;stroke-linecap:butt;stroke-linejoin:miter;stroke:rgb(0%,0%,100%);stroke-opacity:1;stroke-miterlimit:10;" d="M 59.246094 148.421875 L 58.449219 163.195312 "/>
<path style="fill:none;stroke-width:1.2;stroke-linecap:butt;stroke-linejoin:miter;stroke:rgb(0%,0%,0%);stroke-opacity:1;stroke-miterlimit:10;" d="M 60.042969 133.648438 L 47.644531 125.570312 "/>
<path style="fill:none;stroke-width:1.2;stroke-linecap:butt;stroke-linejoin:miter;stroke:rgb(0%,0%,100%);stroke-opacity:1;stroke-miterlimit:10;" d="M 47.644531 125.570312 L 35.25 117.492188 "/>
<path style="fill:none;stroke-width:1.2;stroke-linecap:butt;stroke-linejoin:miter;stroke:rgb(0%,0%,100%);stroke-opacity:1;stroke-miterlimit:10;" d="M 58.449219 163.195312 L 70.84375 171.269531 "/>
<path style="fill:none;stroke-width:1.2;stroke-linecap:butt;stroke-linejoin:miter;stroke:rgb(0%,0%,0%);stroke-opacity:1;stroke-miterlimit:10;" d="M 70.84375 171.269531 L 83.242188 179.347656 "/>
<path style="fill:none;stroke-width:1.2;stroke-linecap:butt;stroke-linejoin:miter;stroke:rgb(0%,0%,100%);stroke-opacity:1;stroke-miterlimit:10;" d="M 64.730469 158.976562 L 74.644531 165.4375 "/>
<path style="fill:none;stroke-width:1.2;stroke-linecap:butt;stroke-linejoin:miter;stroke:rgb(0%,0%,0%);stroke-opacity:1;stroke-miterlimit:10;" d="M 74.644531 165.4375 L 84.5625 171.898438 "/>
<path style=" stroke:none;fill-rule:nonzero;fill:rgb(100%,100%,100%);fill-opacity:1;" d="M 54.449219 156.195312 L 63.449219 156.195312 L 63.449219 170.195312 L 54.449219 170.195312 Z M 54.449219 156.195312 "/>
<g style="fill:rgb(0%,0%,100%);fill-opacity:1;">
  <use xlink:href="#glyph0-2" x="54.449219" y="167.333984"/>
</g>
<path style="fill:none;stroke-width:1.2;stroke-linecap:butt;stroke-linejoin:miter;stroke:rgb(0%,0%,0%);stroke-opacity:1;stroke-miterlimit:10;" d="M 83.242188 179.347656 L 82.445312 194.121094 "/>
<path style="fill:none;stroke-width:1.2;stroke-linecap:butt;stroke-linejoin:miter;stroke:rgb(0%,0%,100%);stroke-opacity:1;stroke-miterlimit:10;" d="M 82.445312 194.121094 L 81.648438 208.894531 "/>
<path style=" stroke:none;fill-rule:nonzero;fill:rgb(100%,100%,100%);fill-opacity:1;" d="M 69.648438 199.394531 L 94.648438 199.394531 L 94.648438 218.394531 L 69.648438 218.394531 Z M 69.648438 199.394531 "/>
<g style="fill:rgb(0%,0%,100%);fill-opacity:1;">
  <use xlink:href="#glyph0-3" x="69.648438" y="210.533203"/>
</g>
<g style="fill:rgb(0%,0%,100%);fill-opacity:1;">
  <use xlink:href="#glyph1-1" x="78.671875" y="215.416016"/>
</g>
<g style="fill:rgb(0%,0%,100%);fill-opacity:1;">
  <use xlink:href="#glyph0-2" x="85.03418" y="210.533203"/>
</g>
<path style=" stroke:none;fill-rule:nonzero;fill:rgb(100%,100%,100%);fill-opacity:1;" d="M 10.25 107.992188 L 35.25 107.992188 L 35.25 126.992188 L 10.25 126.992188 Z M 10.25 107.992188 "/>
<g style="fill:rgb(0%,0%,100%);fill-opacity:1;">
  <use xlink:href="#glyph0-3" x="10.25" y="119.130859"/>
</g>
<g style="fill:rgb(0%,0%,100%);fill-opacity:1;">
  <use xlink:href="#glyph1-1" x="19.273438" y="124.013672"/>
</g>
<g style="fill:rgb(0%,0%,100%);fill-opacity:1;">
  <use xlink:href="#glyph0-2" x="25.635742" y="119.130859"/>
</g>
</g>
</svg>

<svg xmlns="http://www.w3.org/2000/svg" xmlns:xlink="http://www.w3.org/1999/xlink" width="300pt" height="300pt" viewBox="0 0 300 300"><defs><symbol overflow="visible"><path d="M.594 2.125V-8.47h6V2.126zm.672-.672h4.671V-7.78h-4.67zm0 0"/></symbol><symbol overflow="visible" id="a"><path d="M4.734-7.953c-.867 0-1.554.324-2.062.97-.5.635-.75 1.51-.75 2.624 0 1.094.25 1.965.75 2.61.508.637 1.195.953 2.062.953.852 0 1.532-.316 2.032-.953.507-.645.765-1.516.765-2.61 0-1.113-.257-1.988-.764-2.624-.5-.645-1.18-.97-2.032-.97zm0-.953c1.22 0 2.192.414 2.922 1.234.74.824 1.11 1.93 1.11 3.313 0 1.376-.37 2.477-1.11 3.298C6.926-.24 5.953.17 4.734.17c-1.23 0-2.214-.41-2.953-1.234C1.04-1.882.673-2.984.673-4.36c0-1.382.367-2.488 1.11-3.312.738-.82 1.722-1.234 2.952-1.234zm0 0"/></symbol><symbol overflow="visible" id="b"><path d="M1.172-8.75h1.594l3.89 7.313V-8.75h1.14V0H6.204L2.328-7.313V0H1.172zm0 0"/></symbol><symbol overflow="visible" id="c"><path d="M1.172-8.75H2.36v3.594h4.296V-8.75h1.188V0H6.656v-4.172H2.36V0H1.17zm0 0"/></symbol><symbol overflow="visible"><path d="M.5 1.766v-8.813h5v8.813zm.563-.547h3.875v-7.704H1.063zm0 0"/></symbol><symbol overflow="visible" id="d"><path d="M1.922-.828H5.36V0H.733v-.828c.375-.383.883-.906 1.532-1.563.644-.657 1.05-1.08 1.218-1.266.313-.352.532-.65.657-.89.126-.25.188-.493.188-.735 0-.384-.137-.697-.406-.94-.274-.25-.625-.374-1.063-.374-.313 0-.64.06-.985.172-.336.106-.7.266-1.094.484v-1c.396-.156.767-.273 1.11-.36.344-.08.66-.124.954-.124.75 0 1.347.188 1.797.563.458.376.688.883.688 1.516 0 .305-.058.59-.172.86-.117.26-.32.574-.61.937-.085.094-.343.37-.78.828-.438.45-1.055 1.08-1.844 1.892zm0 0"/></symbol></defs><g><path fill="#fff" d="M0 0h300v300H0z"/><path d="M235.18 217.172l.797-14.774" stroke-width="1.2" stroke="#000" stroke-miterlimit="10" fill="none"/><path d="M235.977 202.398l.796-14.773M236.773 187.625l-12.398-8.078" stroke-width="1.2" stroke="#f00" stroke-miterlimit="10" fill="none"/><path d="M224.375 179.547l-12.395-8.078" stroke-width="1.2" stroke="#000" stroke-miterlimit="10" fill="none"/><path d="M231.773 180.625h10v14h-10zm0 0" fill="#fff"/><use xlink:href="#a" x="231.773" y="191.764" fill="#f00"/><path d="M211.98 171.47l-26.386 13.393M206.19 166.602l-21.108 10.714M213.574 141.922l-1.594 29.547M185.594 184.863l-24.79-16.152M160.805 168.71l1.59-29.546M167.914 166.133l1.274-23.637M160.805 168.71l-26.387 13.395M162.395 139.164l26.386-13.394M188.78 125.77l24.794 16.152M187.46 133.22l19.833 12.92M188.78 125.77l.798-14.774" stroke-width="1.2" stroke="#000" stroke-miterlimit="10" fill="none"/><path d="M189.578 110.996l.797-14.773" stroke-width="1.2" stroke="#f00" stroke-miterlimit="10" fill="none"/><path d="M213.574 141.922l13.192-6.695" stroke-width="1.2" stroke="#000" stroke-miterlimit="10" fill="none"/><path d="M226.766 135.227l13.19-6.696M239.957 128.53l12.398 8.075" stroke-width="1.2" stroke="#f00" stroke-miterlimit="10" fill="none"/><path d="M252.355 136.605l12.395 8.08" stroke-width="1.2" stroke="#000" stroke-miterlimit="10" fill="none"/><path d="M234.957 121.53h10v14h-10zm0 0" fill="#fff"/><use xlink:href="#a" x="234.957" y="132.67" fill="#f00"/><path d="M190.375 96.223l13.19-6.696" stroke-width="1.2" stroke="#f00" stroke-miterlimit="10" fill="none"/><path d="M203.566 89.527l13.192-6.7" stroke-width="1.2" stroke="#000" stroke-miterlimit="10" fill="none"/><path d="M185.375 89.223h10v14h-10zm0 0" fill="#fff"/><use xlink:href="#a" x="185.375" y="100.361" fill="#f00"/><path d="M134.418 182.105l-24.793-16.152M109.625 165.953l1.594-29.547M102.832 162.625l1.277-23.64M83.242 179.348l26.383-13.395M111.22 136.406l-12.396-8.078" stroke-width="1.2" stroke="#000" stroke-miterlimit="10" fill="none"/><path d="M98.824 128.328l-12.398-8.074M86.426 120.254l-13.192 6.695" stroke-width="1.2" stroke="#00f" stroke-miterlimit="10" fill="none"/><path d="M73.234 126.95l-13.19 6.698" stroke-width="1.2" stroke="#000" stroke-miterlimit="10" fill="none"/><path d="M86.94 127.8l-10.553 5.356" stroke-width="1.2" stroke="#00f" stroke-miterlimit="10" fill="none"/><path d="M76.387 133.156l-10.555 5.36" stroke-width="1.2" stroke="#000" stroke-miterlimit="10" fill="none"/><path d="M82.426 113.254h9v14h-9zm0 0" fill="#fff"/><use xlink:href="#b" x="82.426" y="124.393" fill="#00f"/><path d="M60.043 133.648l-.797 14.774" stroke-width="1.2" stroke="#000" stroke-miterlimit="10" fill="none"/><path d="M59.246 148.422l-.797 14.773" stroke-width="1.2" stroke="#00f" stroke-miterlimit="10" fill="none"/><path d="M60.043 133.648l-12.398-8.078" stroke-width="1.2" stroke="#000" stroke-miterlimit="10" fill="none"/><path d="M47.645 125.57l-12.395-8.078M58.45 163.195l12.394 8.075" stroke-width="1.2" stroke="#00f" stroke-miterlimit="10" fill="none"/><path d="M70.844 171.27l12.398 8.078" stroke-width="1.2" stroke="#000" stroke-miterlimit="10" fill="none"/><path d="M64.73 158.977l9.915 6.46" stroke-width="1.2" stroke="#00f" stroke-miterlimit="10" fill="none"/><path d="M74.645 165.438l9.918 6.46" stroke-width="1.2" stroke="#000" stroke-miterlimit="10" fill="none"/><path d="M54.45 156.195h9v14h-9zm0 0" fill="#fff"/><use xlink:href="#b" x="54.449" y="167.334" fill="#00f"/><path d="M83.242 179.348l-.797 14.773" stroke-width="1.2" stroke="#000" stroke-miterlimit="10" fill="none"/><path d="M82.445 194.12l-.797 14.775" stroke-width="1.2" stroke="#00f" stroke-miterlimit="10" fill="none"/><path d="M69.648 199.395h25v19h-25zm0 0" fill="#fff"/><use xlink:href="#c" x="69.648" y="210.533" fill="#00f"/><use xlink:href="#d" x="78.672" y="215.416" fill="#00f"/><use xlink:href="#b" x="85.034" y="210.533" fill="#00f"/><path d="M10.25 107.992h25v19h-25zm0 0" fill="#fff"/><use xlink:href="#c" x="10.25" y="119.131" fill="#00f"/><use xlink:href="#d" x="19.273" y="124.014" fill="#00f"/><use xlink:href="#b" x="25.636" y="119.131" fill="#00f"/></g></svg>
